X:1
T:Christ Is Born
T:Christ Is Born
T:Grace Weiser Davis
T:Grace Weiser Davis, 1894
T:Public Domain Courtesy of the Cyber Hymnal™
C:Grace Weiser Davis
Z:Public Domain
Z:Courtesy of the Cyber Hymnal™
%%score ( 1 2 ) ( 3 4 )
L:1/8
Q:1/4=108
M:4/4
K:Bb
V:1 treble 
V:2 treble 
V:3 bass 
V:4 bass 
V:1
 [DF][CE] | [B,D]2 [DF]2 [DB]2 [FA]2 | ([FA]4 [EG]2) [EG][EG] | [DF]2 [EG]2 [DF]2 [CE]2 | %4
w: 1.~Shep- herds|heard the glad re-|frain * On the|ear- ly Ad- vent|
w: 2.~As the|wise men haste to|meet, * And their|cost- ly pre- sents|
w: 3.~“Glo- ry|in the high- est”|sing, * “Peace on|earth, good will to|
w: 4.~Je- sus|Christ shall save from|sin; * Praise Him|on this Ad- vent|
 [B,D]6 [DF][CE] | [B,D]2 [DF]2 [DB]2 [FA]2 | ([FA]4 [EG]2) [EG][EG] | [DF]2 [DB]2 [Fd]2 [Ec]2 | %8
w: morn, And we|join the heaven- ly|strain: * “Je- sus|Christ, the Lord, is|
w: give, So we|come the Christ to|greet; * He our|best gifts shall re-|
w: men”; Let the|bells of glad- ness|ring, * Christ is|born, Sav- ior of|
w: morn! Let Him|be en- throned with-|in! * Christ is|born! the Christ is|
 [DB]6 ||"^Refrain" [DB][Ec] | ([Fd]2 [DB]2) [Fd]2 [Fd]2 | [Fc]6 [FA][FB] | [Fc]4 [Fc]2 [Fc]2 | %13
w: born!”|||||
w: ceive.|The good|tid- * ings pro-|claim, “Christ is|born! Christ is|
w: men!|||||
w: born!|||||
 [Fd]6 [FB][Fc] | [Fd]2 [Fd][Fd] [Fd]2 [_Af][Af] | (f4 e2) [GB][Gc] | [Fd]4 [Fd]2 [Ec]2 | [DB]6 |] %18
w: |||||
w: born!” Till the|world shall be- lieve in His|name; * “Christ is|born! Christ is|born!”|
w: |||||
w: |||||
V:2
 x2 | x8 | x8 | x8 | x8 | x8 | x8 | x8 | x6 || x2 | x8 | x8 | x8 | x8 | x8 | G6 x2 | x8 | x6 |] %18
V:3
 [B,,B,][B,,B,] | [B,,F,]2 [B,,B,]2 [B,,F,]2 [D,B,]2 | [E,B,]6 [E,B,][E,B,] | %3
 [B,,B,]2 [E,B,]2 [F,B,]2 [F,A,]2 | [B,,F,]6 [B,,B,][B,,B,] | [B,,F,]2 [B,,B,]2 [B,,F,]2 [D,B,]2 | %6
 [E,B,]6 [E,B,][E,B,] | [F,B,]2 [F,B,]2 [F,B,]2 [F,A,]2 | [B,,F,]6 || [B,,B,][B,,B,] | %10
 [B,,B,]6 [B,,B,][B,,B,] | [F,A,]6 F,[F,G,] | [F,A,]4 [F,A,]2 [F,A,]2 | [B,,B,]6 [D,B,][F,A,] | %14
 B,2 B,B, B,2 [D,B,][D,B,] | [E,B,]6 [E,B,][E,B,] | [F,B,]4 [F,B,]2 [F,A,]2 | [B,,F,]6 |] %18
V:4
 x2 | x8 | x8 | x8 | x8 | x8 | x8 | x8 | x6 || x2 | x8 | x6 F, x | x8 | x8 | B,2 B,B, B,2 x2 | x8 | %16
 x8 | x6 |] %18

